X:1
T:Johnie Cope (bass)
S:Charles Maclean, Collection of Favourite Scots Tunes, pub. Neil Stewart, c.1770
Z:Jack Campin <jc@purr.demon.co.uk> scots-l 2001-10-21
L:1/8
M:C|
K:Gmin bass
G,2 D,2  G,,2 z2|F,2 C,2  F,,2 z2|G,2 D,2 G,,2 z2|   z  C,D,D,, G,2  G,,2:|
G,2 G,,2 G,,2 z2|F,2 F,,2 F,,2 z2|G,2 D,2 G,,2 z2|"6"B,,C,D,D,, G,,2 G,,2:|
